source/img/icons/icon-person.svg

<svg width="80" height="80" viewBox="0 0 80 80" fill="none" xmlns="http://www.w3.org/2000/svg">
<circle opacity="0.1" cx="40" cy="40" r="40" fill="white"/>
<path d="M45.9875 25.0453C44.4672 23.4039 42.3438 22.5 40 22.5C37.6438 22.5 35.5133 23.3984 34 25.0297C32.4703 26.6789 31.725 28.9203 31.9 31.3406C32.2469 36.1156 35.8805 40 40 40C44.1195 40 47.7469 36.1164 48.0992 31.3422C48.2766 28.9437 47.5266 26.707 45.9875 25.0453Z" fill="#3671E9"/>
<path d="M53.7499 57.5H26.2499C25.8899 57.5047 25.5335 57.4291 25.2064 57.2786C24.8794 57.1282 24.59 56.9068 24.3593 56.6305C23.8515 56.0234 23.6468 55.1945 23.7983 54.3562C24.4577 50.6984 26.5155 47.6258 29.7499 45.4687C32.6233 43.5539 36.2632 42.5 39.9999 42.5C43.7366 42.5 47.3765 43.5547 50.2499 45.4687C53.4843 47.625 55.5421 50.6977 56.2015 54.3555C56.353 55.1937 56.1483 56.0227 55.6405 56.6297C55.4099 56.9062 55.1205 57.1277 54.7935 57.2783C54.4664 57.4288 54.1099 57.5046 53.7499 57.5Z" fill="#3671E9"/>
</svg>

<svg width="80" height="80" fill="none" xmlns="http://www.w3.org/2000/svg"><circle opacity=".1" cx="40" cy="40" r="40" fill="#fff"/><path d="M45.987 25.045C44.467 23.404 42.344 22.5 40 22.5c-2.356 0-4.487.898-6 2.53-1.53 1.649-2.275 3.89-2.1 6.31.347 4.776 3.98 8.66 8.1 8.66 4.12 0 7.747-3.884 8.1-8.658.177-2.398-.573-4.635-2.113-6.297zM53.75 57.5h-27.5a2.42 2.42 0 01-1.89-.87c-.508-.607-.713-1.436-.562-2.274.66-3.658 2.718-6.73 5.952-8.887C32.623 43.554 36.263 42.5 40 42.5s7.377 1.055 10.25 2.969c3.234 2.156 5.292 5.229 5.952 8.886.151.839-.054 1.668-.561 2.275a2.422 2.422 0 01-1.891.87z" fill="#3671E9"/></svg>
